X:1
T:Pietà Signore
T:attribuito a Alessandro Stradella (Nepi, 3 aprile 1639 – Genova, 25 febbraio 1682)
T:Scritto con MuseScore, un software libero e gratuito: http://musescore.org/it
T:Scritto con MuseScore, un software libero e gratuito: http://musescore.org/it
T:Scritto con MuseScore, un software libero e gratuito: http://musescore.org/it
T:Scritto con MuseScore, un software libero e gratuito: http://musescore.org/it
T:Scritto con MuseScore, un software libero e gratuito: http://musescore.org/it
T:Scritto con MuseScore, un software libero e gratuito: http://musescore.org/it
Z:Scritto con MuseScore, un software libero e gratuito: http://musescore.org/it
%%score 1 { ( 2 4 ) | ( 3 5 ) }
L:1/8
Q:1/4=83
M:3/4
K:C
V:1 treble nm="Voice"
V:2 treble nm="Piano"
V:4 treble 
V:3 bass 
V:5 bass 
V:1
"^Andante" z6 | z6 | z6 | z6 | z6 | z6 | z6 | z6 | z6 | z6 | z6 | z6 | z6 | z6 | z6 | z6 | z6 | %17
w: |||||||||||||||||
w: |||||||||||||||||
 z6 | z6 | z6 |!p! E2 A3 c | (B3 A) A2 | z6 | z6 | E2!<(! A2 E2!<)! |!>(!{G} F4 F2!>)! | z6 | z6 | %28
w: |||||||||||
w: |||Pie\- tà Si\-|gno \- re|||di me do\-|len\- te|||
!<(! A2 C2 D2!<)! |!>(! E4 !fermata!z2!>)! | A2 B2 c2 |!<(! d4 !breath!c2!<)! | %32
w: ||||
w: Si\- gnor. pie\-|tà|se a Te|giun\- ge~͜~il|
!>(! (c3 B) (AB)!>)! | c4 z2 |!p! A2 B2 c2 | B4 !breath!A2 | (A3 ^G) ^F G | A4 z2 |!mf! E2 A2 c2 | %39
w: |||||||
w: mi\- o pre \-|gar,|non mi pu\-|ni\- sca͜͜~il|tu \- o ri\-|gor!|Me\- no se\-|
 c2 _B2 z2 | F2 _B2 d2 |!<(! d2 ^c2 z2!<)! |!f! (d3!>(! =c) =B A!>)! |!p! A2 ^G2 z2 | A2 C2 D2 | %45
w: ||||||
w: ve\- ri,|cle\- men\- ti~o\-|gno\- ra,|vol\- giii Tuo\- i|sguar\- di|so\- pra di|
 E4 z2 | E2 (FE) (DC) | B,4 !fermata!z2 |!p! (Ac) (BA) (^GA) |{/A} (A^G) A2 z2 | %50
w: |||||
w: me,|so\- pra \- di \-|me!|Non * fi \- a \-|ma \- i,|
"^cresc." (Ac) (BA) (^GA) |{/A} A>^G A2 z2 | A2 D2 c2 | c4 !breath!B2 |"^cresc." B2 E2 d2 | %55
w: |||||
w: che * nel \- l'in \-|fer- * no|si\- a dan\-|na\- to,|nel fuo\- co͜͜~e|
"^rall. molto." (dc) (c!breath!B) (BA) | (cB) A2 T^G2 | A4 z2 | z4!p! E2 | F2 F2 z2 | z4 E2 | %61
w: ||||||
w: ter \- no \- dal _|Tu \- o ri|gor!|Gran|Di\- o!|Giam\-|
 D4 z2 |"^cresc." A2 D2 c2 | c4 !breath!B2 |!f! B2 E2 d2 |"^cresc." (dc) (c!breath!B) (BA) | %66
w: |||||
w: mai|si\- a dan\-|na\- to|nel fuo\- co͜~e|ter \- no \- dal *|
 (cB) A2 T^G x | !breath!A4!f! C2 | D2 E4 | A,4 z2 | z6 | z6 | z6 |!p! E2 F2 G2 | A2 G4 | %75
w: |||||||||
w: Tuo \- o ri\-|gor, dal|Tuo ri\-|gor!||||Pie\- tà, Si\-|gno\- re,|
 A2 !breath!G2 (Bc) | (c2 G2) TB2 | (c2 G2) TB2 |!<(! c G (AG) (FE)!<)! |!>(! (E>D) D2 z2!>)! | %80
w: |||||
w: Si\- gnor, pie \-|tà * *||* di me * do *|len \- te!|
 D2 G2 B2 | B2 !breath!A4 |"^cresc." E2 A2 c2 | c2!>(! !breath!B4!>)! | (cA) ^F2 E2 |{/E} ^D4 z2 | %86
w: ||||||
w: Se a Te|giun\- ge|il mio pre\-|ga re|il * mio pre\-|gar,|
!p! (GA) B2 E2 | (E^D) !breath!^F4 | (GA) B2 E2 | (^D^F) !breath!A4 |!<(! A3 B (cB)!<)! | %91
w: |||||
w: me \- no se\-|ve \- ri,|cle \- men\- ti~o\-|gno \- ra,|vol\- gi~i Tuoi *|
!>(! (B>^A) !breath!A4!>)! |!p! B2 ^F2 A2 |!<(! (G2 A2) !breath!B2!<)! | (cA) G2 ^F2 | %95
w: ||||
w: sguar\- * di,|deh, vol\- gi͜~i|sguar \- di|su * me, Si\-|
!>(! !breath!A6!>)! |!>(! (Bc) E2 (G^F)!>)! | E4 z2 | z6 | z6 | z6 | z6 |!p! E2 A2 c2 | (B3 A) A2 | %104
w: |||||||||
w: gnor,|su * me, Si \-|gnor!|||||Pie\- tà, Si\-|gno \- re|
 z6 | z6 | E2 A2 E2 | F4 F2 | z6 | z6 | A2!<(! C2 D2!<)! |!>(! E4 !fermata!z2!>)! |!p! A2 B2 c2 | %113
w: |||||||||
w: ||di me do\-|len\- te|||Si\- gnor, pie\-|tà!|Se a Te|
!<(! d4 !breath!c2!<)! | (c3 B)!>(! AB!>)! | c4 z2 |!pp! A2!<(! B2 c2!<)! | B4 !breath!A2 | %118
w: |||||
w: giun\- ge~͜~il|mi\- o pre \-|gar,|non mi pu\-|ni\- sca͜͜~il|
 (A3 ^G)!>(! ^F G!>)! | A4 z2 |!mf!"^cresc." E2 A2 c2 | c2 ^A2 z2 | F2 ^A2!<(! d2!<)! | d2 ^c2 z2 | %124
w: ||||||
w: Tu \- o ri\-|gor,|me\- no se\-|ve\- ri,|cle\- men\- ti͜~o\-|gno ra,|
!f! (d3 =c)!>(! =B A!>)! |!p! A2 ^G2 z2 |!p! A2 C2 D2 | E4 z2 | E2 (FE) (DC) | !fermata!B,4 z2 | %130
w: ||||||
w: vol\- gi͜~i Tuoi *|sguar\- di,|so\- pra di|me|so\- pra _ di _|me!|
!p! (Ac) (BA) (^GA) |{/A} (A^G) A2 z2 |"^cresc." (Ac) (BA) (^GA) |{/A} (A>^G) A2 z2 | A2 D2 c2 | %135
w: |||||
w: Non * fi \- a *|ma \- i,|che _ nel \- l'in \-|fer \- no|si\- a dan\-|
 c4 !breath!B2 |!<(!"^cresc." B2 E2 d2!<)! |!ff! (dc) (cB) (BA) |"^dim." (cB) A2 T^G x | A4 z2 | %140
w: |||||
w: na\- to|nel fuo\- co͜~e|ter \- no * dal *|Tu \- o ri\-|gor!|
 z4!p! E2 | F2 F2 z2 | z4 E2 | D4 z2 | A2 D2 c2 | c4 !breath!B2 |"^cresc." B2 E2 d2 | %147
w: |||||||
w: Gran|Di\- o|giam\-|mai|si\- a dan\-|na\- to|nel fuo\- co͜~e|
 (dc) (cB) (BA) | (cB) A2 T^G z | !breath!A4!f! C2 | D2 E4 | A,6 | z6 | z6 | z6 |] %155
w: ||||||||
w: ter \- no _ dal *|Tu \- o ri\-|gor, dal|Tuo ri\-|gor!||||
V:2
"^Andantino" [A,C]6- | [A,C]6 | [A,C]6- | [A,C]6 | [A,C]6 | [^G,B,]2 [A,C]2 [G,B,]2 | %6
 [A,C]2 [^G,B,]2 [A,C]2 | T[^A,C]6 |{A,B,} [A,^C]6 | dc(Bd)cB | AcBA ^G2 | AB{/c} TB4 | %12
{AB} [E^c]4 [G,^C]2 | (DC)B,D[E,C]B, | A,CB,A,!>(! ^G,2!>)! | A,[A,B,]{/C} T[^G,B,]4 | A,6 | z6 | %18
 z6 | z6 | z6 | z6 | [A,C]6- | [A,C]6 | z6 | z6 | [F,D]6- | [F,D]6 | A2 C2 D2 | %29
 [^G,B,E]4 !fermata!z2 | z6 | z6 | z G,[DF]G,[DF]G, | z G,[CE]G,[CE]G, | z6 | z6 | z6 | z6 | z6 | %39
 z6 | z6 | z6 | z6 | z6 | z6 | z6 | z6 | z6 | z [A,C][A,C][A,C][A,C][A,C] | %49
 z [A,C][A,CA][A,CA][A,CA][A,CA] |"_cresc." z [A,C][A,C][A,C][A,C][A,C] | %51
 z [A,C][A,CA][A,CA][A,CA][A,CA] | [CDA][CDA][CDA][CDA][CDA][CDA] | %53
 [CDG][CDG][CDG][CDG][CDG][CDG] | [DEB][DEB][DEB][DEB][DEB][DEB] | %55
 z"^rall. molto." [CEA] z [B,D^G] z [A,CA] | z [A,B,] z [A,C] z [B,D] | [A,C] z z2 z E | AcBA^GA | %59
{B} A^G A2"_cresc." z E | Ac BA ^GA |{B} A^G A4 |"_cresc." [CDA][CDA][CDA][CDA][CDA][CDA] | %63
 [CDG][CDG][CDG][CDG][CDG][CDG] | [DEB][DEB][DEB][DEB][DEB][DEB] | %65
"_cresc." z [CEA] z [B,D^G] z [A,CA] | z [A,B,] [A,C]2 [^G,B,D]2 | [G,C]2 z2 z2 | z6 | [A,C]6- | %70
 [A,C]6 | z6 | z6 | [B,E]2 [DF]2 [EG]2 | [FA]2 [EG]4 | [FA]2 [EG]2 [DF]2 | E2 G2 F2 | E2 G2 F2 | %78
 [CE] ([EG][FA])[EG][DF][CE] | [CF]>[B,D] [B,D]2 z2 | D2 G2 [B,D]2 | [CE]6 | E2 A2 E2 | %83
 z B,[^DA]B,[EG]B, | z ^F,[C^F]F,[CE]F, | z ^F,[C^F]F,[CE]F, | z B,[G,E]B,[G,E]B, | %87
 z B,[A,^D]B,[A,D]B, | z B,[G,E]B,[G,E]B, | z A,[^F,^D]A,[F,D]B, | %90
 z [A,C][E,E][E,B,E][E,CE][E,B,E] | z ^F,[^A,E]D,[F,E]D, | z B,[^F,^D]B,[A,^F]B, | %93
 z [B,EG] z [B,^DA] z [B,EB] | z [C^FA] z [E^G] z [A,^DF] | [A,EA][A,EA][A,EA][A,EA][A,EA][A,EA] | %96
 [B,EB][CEc] [G,B,E]2 [A,^D]2 | [F,E]4 z2 | z6 | z6 | z6 | z6 | z6 | z6 | [A,C]6- | [A,C]6 | z6 | %107
 z6 | [F,D]6- | [F,D]6 | A2 C2 D2 | [^G,B,E]4 z2 | z6 | z6 | z G,[DF]G,[DF]G, | z G,[CE]G,[CE]G, | %116
!pp! z6 | z6 | z6 | z6 | z6 | z6 | z6 | z6 | z6 | z6 | z6 | z6 | z6 | z6 | %130
 z [A,C][A,C][A,C][A,C][A,C] | z [A,C][A,CA][A,CA][A,CA][A,CA] | %132
"_cresc." z [A,C][A,C][A,C][A,C][A,C] | z [A,C][A,CA][A,CA][A,CA][A,CA] | %134
 [CDA][CDA][CDA][CDA][CDA][CDA] | [CDG][CDG][CDG][CDG][CDG][CDG] | %136
"_cresc." [DEB][DEB][DEB][DEB][DEB][DEB] | z [CEA] z [B,D^G] z [A,CA] | z [A,B,] z [A,C] z [B,D] | %139
 [A,C] z z2 z E | AcBA^GA |{B} A^G A2 z E | Ac BA ^GA |{B} A^G A4 | %144
 [CDA][CDA][CDA][CDA][CDA][CDA] | [CDG][CDG][CDG][CDG][CDG][CDG] | [DEB][DEB][DEB][DEB][DEB][DEB] | %147
 z [CEA] z [B,D^G] z [A,CA] | z [A,B,] [A,C]2 [^G,B,D]2 | [G,C]2 z2 z2 | z6 |"_dim." [A,C]6- | %152
 [A,C]6 | z6 | z6 |] %155
V:3
!p!!<(! (A,,B,,)C,B,,C,!>(!B,,!<)!!>)! | A,,^G,, A,,4 |!<(! (F,,G,,)A,,G,,A,,!>(!G,,!<)!!>)! | %3
!<(! F,,E,, F,,4!<)! |!>(! C,(D,E,)D,C,!<(!D,!>)!!<)! | E,D,C,D,E,D, | C,D,E,D,C,D, | %7
 E,2 E,,2 E,,2 |!mf! [A,,E,]6 |!<(! ([F,A,]2 [G,B,]2) [C,C]2!<)! | [F,A,]2 [D,B,]2!>(! (E,D,)!>)! | %11
 C,[D,F,] [E,^G,]4 |!mf! [A,,A,]2 [A,,,A,,]2!p! [A,,,A,,]2 | [D,,D,]2 G,,2 [C,,C,]2 | %14
 F,,2 [D,,D,]2 [E,,E,][D,,D,] | [B,,,C,][D,,D,] [E,,E,]2 [E,,,E,,]2 | A,,B,,C,B,,C,B,, | [C,A,]6- | %18
 [C,A,]6 | [C,A,]4 z2 | z6 | z6 |!p!!<(! (A,,B,,)C,B,,C,!>(!B,,!<)!!>)! | A,,^G,, A,,4 | z6 | z6 | %26
 (D,,E,,F,,E,,F,,E,, | D,,^C,,) D,,3 E,, | F,,2 [F,,F,]4 | [E,,E,]4 !fermata!z2 | %30
 z A,[D,B,]A,[E,C]A, | z A,[F,D]A,[E,C]A, | [G,,,G,,]6 |"^dim." [C,,C,]6 | z F,[A,B,]F,[A,C]F, | %35
 z F,[A,B,D]F,[A,B,C]F, | z E,[B,D]E,[B,D]E, | [A,D]6 | [A,C][A,C][A,C][A,C][A,C][A,C] | [A,D]6 | %40
 [A,C][A,C][A,C][A,C][A,C][A,C] | [G,^CE]6 |!p! z6 | z E,[^G,B,][B,D]E, z | [A,,A,C]4 z2 | %45
 z E,[^G,B,][B,D]E, z | (((([A,,E,A,C]6 | [E,,E,^G,B,]4)))) z2 | [C,,C,]4 z2 | [D,,D,]4 z2 | %50
 [F,,F,]4 z2 | [F,,F,]4 z2 | [^F,,^F,][F,,F,][F,,F,][F,,F,][F,,F,][F,,F,] | %53
 [G,,G,][G,,G,][G,,G,][G,,G,][G,,G,][G,,G,] | [^G,,^G,][G,,G,][G,,G,][G,,G,][G,,G,][G,,G,] | %55
 [A,,A,] z [E,,E,] z [F,,F,] z | [D,,D,]2 [E,,E,]2 [E,,E,]2 | [A,,E,][A,C][CE][B,D][A,C][E,B,] | %58
!p! z [E,A,][E,A,][E,A,][E,A,][E,A,] | z [E,A,][E,A,][E,A,][E,A,][E,A,] | %60
 z [A,C][A,C][A,C][A,C][A,C] | z [A,C][A,C][A,C][A,C][A,C] | %62
 [^F,,^F,][F,,F,][F,,F,][F,,F,][F,,F,][F,,F,] | [G,,G,][G,,G,][G,,G,][G,,G,][G,,G,][G,,G,] | %64
!f! [^G,,^G,][G,,G,][G,,G,][G,,G,][G,,G,][G,,G,] | [A,,A,] z [E,,E,] z [F,,F,] z | %66
 [D,,D,]2 [E,,E,]2 [E,,E,]2 | [A,,E,]2 z2 [C,,A,,]2 | [D,,D,]2 [E,,E,]4 | (A,,B,,)C,B,,C,B,, | %70
 A,,^G,,A,,=G,,F,,E,, | [D,,F,A,B,]2 [E,,E,A,C]2 [E,,E,^G,B,]2 | [A,,C,E,A,]6 |!p! [C,,C,]6 | %74
 [C,,C,]6- | [C,,C,]6 | [C,,C,]4 G,,2 | [C,,C,]4 G,,2 | [C,,C,]2 z2 [F,,,F,,]2 | [G,,,G,,]4 z2 | %80
 G,,6 | G,,^F,,G,,F,,G,,F,, | G,,6 | ^F,,4 G,,2 | A,,4 A,,2 | B,,2 z4 |!p! B,,2 z4 | B,,2 z4 | %88
 B,,2 z4 | B,,2 z4 | C,3 B,,A,,G,, | ^F,,6 | B,,6 |!<(! [E,,E,]2 [^F,,^F,]2 [G,,G,]2!<)! | %94
 [A,,A,]2 [B,,B,]2 [B,,,B,,]2 | [C,,C,]6 |!>(! [G,,,G,,][A,,,A,,] [B,,,B,,]2 [B,,,B,,]2!>)! | %97
 [E,,C,]4 [E,,C,]2 | [F,,F,][E,,E,] [D,,D,]2 [A,,A,]2 | (([^G,,^G,]4 [A,,A,]2)) | %100
 [D,D][C,C] [B,,B,]2 [E,E]2 | [A,,A,]4 z2 | z6 | z6 | (A,,B,,)C,B,,C,B,, | A,,^G,, A,,4 | z6 | z6 | %108
!<(! (D,,E,,F,,E,,F,,!>(!E,,!<)!!>)! | D,,^C,,) D,,3 E,, | F,,2 [F,,F,]4 | [E,,E,]4 z2 | %112
 z A,[D,B,]A,[E,C]A, | z A,[F,D]A,[E,C]A, | [G,,,G,,]6 | [C,,C,]6 | z F,[A,B,]F,[A,C]F, | %117
 z F,[A,B,D]F,[A,B,C]F, | z E,[B,D]E,[B,D]E, | [A,D]6 | [A,C][A,C][A,C][A,C][A,C][A,C] | [A,D]6 | %122
 [A,C][A,C][A,C][A,C][A,C][A,C] | [G,^CE]6 |!>(! [D,,D,F,D]4 z2!>)! | z E,[^G,B,]E,[B,D]E, | %126
!p! [A,,A,C]4 z2 | z E,[^G,B,][B,D]E, z | (((([A,,E,A,C]6 | [E,,E,^G,B,]4)))) !fermata!z2 | %130
!p! [C,,C,]4 z2 | [D,,D,]4 z2 | [F,,F,]4 z2 | [F,,F,]4 z2 | %134
 [^F,,^F,][F,,F,][F,,F,][F,,F,][F,,F,][F,,F,] | [G,,G,][G,,G,][G,,G,][G,,G,][G,,G,][G,,G,] | %136
 [^G,,^G,][G,,G,][G,,G,][G,,G,][G,,G,][G,,G,] | [A,,A,] z [E,,E,] z [F,,F,] z | %138
 [D,,D,]2 [E,,E,]2 [E,,E,]2 | [A,,E,][A,C][CE][B,D][A,C][E,B,] | %140
!p! z [E,A,][E,A,][E,A,][E,A,][E,A,] | z [E,A,][E,A,][E,A,][E,A,][E,A,] | %142
 z [A,C][A,C][A,C][A,C][A,C] | z [A,C][A,C][A,C][A,C][A,C] | %144
 [^F,,^F,][F,,F,][F,,F,][F,,F,][F,,F,][F,,F,] | [G,,G,][G,,G,][G,,G,][G,,G,][G,,G,][G,,G,] | %146
 [^G,,^G,][G,,G,][G,,G,][G,,G,][G,,G,][G,,G,] | [A,,A,] z [E,,E,] z [F,,F,] z | %148
 [D,,D,]2 [E,,E,]2 [E,,E,]2 | [A,,E,]2 z2 [C,,A,,]2 | [D,,D,]2 [E,,E,]4 | (A,,B,,C,B,,C,B,, | %152
 A,,^G,,A,,=G,,F,,E,,) |!p! [D,,F,A,B,]2 [E,,E,A,C]2 T[E,,E,^G,B,]2 | !fermata![A,,C,E,A,]6 |] %155
V:4
 x6 | x6 | x6 | x6 | x6 | x6 | x6 | x6 | x6 | x6 | x6 | x6 | x6 | F,4 x2 | F,4 x2 | x6 | x6 | x6 | %18
 x6 | x6 | x6 | x6 | x6 | x6 | x6 | x6 | x6 | x6 | x6 | x6 | x6 | x6 | x6 | x6 | x6 | x6 | x6 | %37
 x6 | x6 | x6 | x6 | x6 | x6 | x6 | x6 | x6 | x6 | x6 | x6 | x6 | x6 | x6 | x6 | x6 | x6 | x6 | %56
 x6 | x6 | x6 | x6 | x6 | x6 | x6 | x6 | x6 | x6 | x6 | x6 | x6 | x6 | x6 | x6 | x6 | x6 | x6 | %75
 x6 | CG, EG, DG, | CG, EG, DG, | x6 | x6 | B,4 x2 | x6 | C4 C2 | x6 | x6 | x6 | x6 | x6 | x6 | %89
 x6 | x6 | x6 | x6 | x6 | x6 | x6 | x6 | x6 | x6 | x6 | x6 | x6 | x6 | x6 | x6 | x6 | x6 | x6 | %108
 x6 | x6 | x6 | x6 | x6 | x6 | x6 | x6 | x6 | x6 | x6 | x6 | x6 | x6 | x6 | x6 | x6 | x6 | x6 | %127
 x6 | x6 | x6 | x6 | x6 | x6 | x6 | x6 | x6 | x6 | x6 | x6 | x6 | x6 | x6 | x6 | x6 | x6 | x6 | %146
 x6 | x6 | x6 | x6 | x6 | x6 | x6 | x6 | x6 |] %155
V:5
 x6 | x6 | x6 | x6 | x6 | x6 | x6 | x6 | x6 | x6 | x6 | x6 | x6 | x6 | x6 | x6 | G,,,2 z4 | %17
 A,,"^dim."^G,,A,,G,,A,,G,, | A,,2!p! (C,,2 D,,)E,, | A,,,4 z2 | x6 | x6 | x6 | x6 | x6 | x6 | x6 | %27
 x6 | x6 | x6 | A,,4 x2 | [D,,D,]4 x2 | x6 | x6 | F,,4 z2 | D,4 z2 | [E,,E,]6 | %37
 (A,,^G,,)A,,G,,A,,G,, | A,,2 z4 | (A,,^G,,)A,,G,,A,,G,, | A,,2 z4 | A,,^G,,A,,G,,A,,A,, | %42
 [D,,D,F,D]4 x2 | E,,6 | x6 | E,,6 | x6 | x6 | x6 | x6 | x6 | x6 | x6 | x6 | x6 | x6 | x6 | x6 | %58
 C,6 | D,6 | E,6 | F,6 | x6 | x6 | x6 | x6 | x6 | x6 | x6 | x6 | x6 | x6 | x6 | x6 | x6 | x6 | x6 | %77
 x6 | x6 | x6 | x6 | x6 | x6 | x6 | x6 | x6 | x6 | x6 | x6 | x6 | x6 | x6 | x6 | x6 | x6 | x6 | %96
 x6 | x6 | x6 | x6 | x6 | x6 | x6 | x6 | x6 | x6 | x6 | x6 | x6 | x6 | x6 | x6 | A,,4 x2 | %113
 [D,,D,]4 x2 | x6 | x6 | F,,4 x2 | D,4 x2 | [E,,E,]6 | (A,,^G,,)A,,G,,A,,G,, | A,,2 z4 | %121
 A,,^G,,A,,G,,A,,G,, | A,,2 x4 | A,,^G,,A,,G,,A,,A,, | x6 | E,,6 | x6 | E,,6 | x6 | x6 | x6 | x6 | %132
 x6 | x6 | x6 | x6 | x6 | x6 | x6 | x6 | C,6 | D,6 | E,6 | F,6 | x6 | x6 | x6 | x6 | x6 | x6 | x6 | %151
 x6 | x6 | x6 | x6 |] %155

